assassinioa.CUBE
#Created by: Adobe Photoshop Export Color Lookup Plugin
TITLE "assassinioa.psd"
#LUT size
LUT_3D_SIZE 64
#data domain
DOMAIN_MIN 0.0 0.0 0.0
DOMAIN_MAX 1.0 1.0 1.0
#LUT data points
0.000000 0.000000 0.000000
0.000000 0.000000 0.000000
0.000000 0.000000 0.000000
0.000122 0.000000 0.000244
0.000610 0.000061 0.000671
0.001556 0.000122 0.001190
0.002930 0.000275 0.001831
0.004761 0.000488 0.002533
0.007172 0.000671 0.003357
0.011963 0.000977 0.004303
0.017792 0.001282 0.005310
0.027374 0.001648 0.006439
0.047119 0.002045 0.007629
0.067078 0.002472 0.008942
0.086823 0.002960 0.010315
0.106232 0.003510 0.011810
0.125732 0.004059 0.013336
0.145081 0.004669 0.014984
0.163940 0.005280 0.016693
0.182739 0.005981 0.018463
0.201294 0.006653 0.020355
0.219482 0.007385 0.022247
0.237457 0.008118 0.024200
0.255432 0.008942 0.026245
0.273010 0.009735 0.028351
0.290314 0.010590 0.030487
0.307556 0.011475 0.032715
0.324585 0.012390 0.034973
0.341553 0.013275 0.037323
0.358307 0.014252 0.039703
0.374969 0.015228 0.042145
0.391327 0.016205 0.044617
0.407745 0.017242 0.047150
0.424225 0.018341 0.049835
0.440582 0.019440 0.052521
0.456909 0.020538 0.055328
0.472565 0.021729 0.056671
0.488007 0.022919 0.057709
0.503326 0.024170 0.058807
0.518768 0.025421 0.059845
0.534210 0.027283 0.060913
0.549530 0.029297 0.062012
0.564850 0.031281 0.063110
0.580200 0.033356 0.064209
0.595612 0.035400 0.065308
0.611053 0.037476 0.066437
0.626495 0.039551 0.067566
0.642151 0.041656 0.068756
0.657928 0.043793 0.069916
0.673859 0.045959 0.071106
0.690216 0.048157 0.072327
0.706512 0.050415 0.073517
0.723053 0.052643 0.074768
0.740021 0.054962 0.076019
0.756927 0.057251 0.077301
0.774323 0.059570 0.078613
0.791656 0.061890 0.079865
0.809479 0.064270 0.081207
0.827332 0.066650 0.082489
0.845642 0.069031 0.083862
0.864258 0.071442 0.085175
0.882874 0.073822 0.086517
0.894684 0.075317 0.087341
0.894684 0.075317 0.087341
0.000031 0.000153 0.000458
0.000031 0.000153 0.000458
0.000031 0.000153 0.000458
0.000122 0.000183 0.000427
0.000580 0.000366 0.000763
0.001495 0.000702 0.001282
0.002899 0.001038 0.001892
0.004761 0.001465 0.002533
0.007172 0.001923 0.003357
0.011963 0.002380 0.004303
0.017792 0.002899 0.005310
0.027374 0.003479 0.006439
0.047119 0.004089 0.007629
0.067078 0.004730 0.008942
0.086823 0.005463 0.010315
0.106232 0.006165 0.011810
0.125732 0.006958 0.013336
0.145081 0.007751 0.014984
0.163940 0.008575 0.016693
0.182739 0.009460 0.018463
0.201294 0.010376 0.020355
0.219482 0.011292 0.022247
0.237457 0.012268 0.024200
0.255432 0.013245 0.026245
0.273010 0.014252 0.028351
0.290314 0.015289 0.030487
0.307556 0.016357 0.032715
0.324585 0.017426 0.034973
0.341553 0.018616 0.037323
0.358307 0.020386 0.039703
0.374969 0.022217 0.042145
0.391327 0.024048 0.044617
0.407745 0.026031 0.047150
0.424225 0.028137 0.049835
0.440582 0.030212 0.052521
0.456909 0.032410 0.055328
0.472565 0.034363 0.056671
0.488007 0.036407 0.057709
0.503326 0.038330 0.058807
0.518768 0.040314 0.059845
0.534210 0.042358 0.060913
0.549530 0.044342 0.062012
0.564850 0.046326 0.063110
0.580200 0.048370 0.064209
0.595612 0.050354 0.065308
0.611053 0.052490 0.066437
0.626495 0.054504 0.067566
0.642151 0.056702 0.068756
0.657928 0.058746 0.069916
0.673859 0.060913 0.071106
0.690216 0.063171 0.072327
0.706512 0.065399 0.073517
0.723053 0.067657 0.074768
0.740021 0.069946 0.076019
0.756927 0.072235 0.077301
0.774323 0.074554 0.078613
0.791656 0.076843 0.079865
0.809479 0.079163 0.081207
0.827332 0.081665 0.082489
0.845642 0.083984 0.083862
0.864258 0.086304 0.085175
0.882874 0.088776 0.086517
0.894684 0.090271 0.087341
0.894684 0.090271 0.087341
0.000122 0.000702 0.001160
0.000122 0.000702 0.001160
0.000122 0.000702 0.001160
0.000305 0.000732 0.001038
0.000671 0.000824 0.001038
0.001343 0.001099 0.001434
0.002625 0.001678 0.002106
0.004456 0.002319 0.002808
0.006866 0.003052 0.003601
0.011658 0.003754 0.004486
0.017639 0.004517 0.005402
0.027374 0.005280 0.006439
0.047119 0.006104 0.007629
0.067078 0.006989 0.008942
0.086823 0.007874 0.010315
0.106232 0.008850 0.011810
0.125732 0.009796 0.013336
0.145081 0.010834 0.014984
0.163940 0.012146 0.016693
0.182739 0.013672 0.018463
0.201294 0.015259 0.020355
0.219482 0.016937 0.022247
0.237457 0.018707 0.024200
0.255432 0.020477 0.026245
0.273010 0.022339 0.028351
0.290314 0.024353 0.030487
0.307556 0.026276 0.032715
0.324585 0.028351 0.034973
0.341553 0.030548 0.037323
0.358307 0.032715 0.039703
0.374969 0.034912 0.042145
0.391327 0.037231 0.044617
0.407745 0.039642 0.047150
0.424225 0.042084 0.049835
0.440582 0.044678 0.052521
0.456909 0.047241 0.055328
0.472565 0.049316 0.056671
0.488007 0.051300 0.057709
0.503326 0.053223 0.058807
0.518768 0.055176 0.059845
0.534210 0.057190 0.060913
0.549530 0.059174 0.062012
0.564850 0.061157 0.063110
0.580200 0.063171 0.064209
0.595612 0.065247 0.065308
0.611053 0.067322 0.066437
0.626495 0.069366 0.067566
0.642151 0.071442 0.068756
0.657928 0.073517 0.069916
0.673859 0.075775 0.071106
0.690216 0.078003 0.072327
0.706512 0.080139 0.073517
0.723053 0.082367 0.074768
0.740021 0.084656 0.076019
0.756927 0.086914 0.077301
0.774323 0.089233 0.078613
0.791656 0.091614 0.079865
0.809479 0.093933 0.081207
0.827332 0.096313 0.082489
0.845642 0.098785 0.083862
0.864258 0.101044 0.085175
0.882874 0.103424 0.086517
0.894684 0.105042 0.087341
0.894684 0.105042 0.087341
0.000336 0.001617 0.002075
0.000336 0.001617 0.002075
0.000336 0.001617 0.002075
0.000549 0.001617 0.001862
0.001038 0.001770 0.001831
0.001617 0.001892 0.001831
0.002472 0.002197 0.002197
0.004120 0.003021 0.003082
0.006378 0.003998 0.003967
0.011047 0.005249 0.004852
0.016876 0.006531 0.005890
0.025421 0.007935 0.006958
0.045807 0.009369 0.008026
0.066101 0.010864 0.009247
0.086334 0.012421 0.010529
0.106232 0.014008 0.011810
0.125732 0.015839 0.013336
0.145081 0.017670 0.014984
0.163940 0.019592 0.016693
0.182739 0.021545 0.018463
0.201294 0.023621 0.020355
0.219482 0.025757 0.022247
0.237457 0.027893 0.024200
0.255432 0.030212 0.026245
0.273010 0.032501 0.028351
0.290314 0.034851 0.030487
0.307556 0.037292 0.032715
0.324585 0.039795 0.034973
0.341553 0.042358 0.037323
0.358307 0.044922 0.039703
0.374969 0.047607 0.042145
0.391327 0.050293 0.044617
0.407745 0.053131 0.047150
0.424225 0.056000 0.049835
0.440582 0.058960 0.052521
0.456909 0.061981 0.055328
0.472565 0.064148 0.056671
0.488007 0.066101 0.057709
0.503326 0.067963 0.058807
0.518768 0.070038 0.059845
0.534210 0.071960 0.060913
0.549530 0.073944 0.062012
0.564850 0.075897 0.063110
0.580200 0.077972 0.064209
0.595612 0.080017 0.065308
0.611053 0.082001 0.066437
0.626495 0.084137 0.067566
0.642151 0.086273 0.068756
0.657928 0.088379 0.069916
0.673859 0.090485 0.071106
0.690216 0.092651 0.072327
0.706512 0.094849 0.073517
0.723053 0.097168 0.074768
0.740021 0.099457 0.076019
0.756927 0.101654 0.077301
0.774323 0.104095 0.078613
0.791656 0.106293 0.079865
0.809479 0.108704 0.081207
0.827332 0.111053 0.082489
0.845642 0.113434 0.083862
0.864258 0.115753 0.085175
0.882874 0.118256 0.086517
0.894684 0.119659 0.087341
0.894684 0.119659 0.087341
0.000580 0.003357 0.003204
0.000580 0.003357 0.003204
0.000580 0.003357 0.003204
0.000824 0.003357 0.002838
0.001434 0.003540 0.002808
0.002167 0.003906 0.002747
0.002930 0.004059 0.002716
0.004028 0.004669 0.003174
0.005981 0.006134 0.004303
0.010376 0.007935 0.005249
0.016235 0.009827 0.006317
0.023529 0.011749 0.007477
0.043671 0.013763 0.008667
0.064178 0.015839 0.009888
0.084259 0.017975 0.011261
0.104584 0.020203 0.012512
0.124573 0.022430 0.013916
0.143799 0.024780 0.015564
0.163239 0.027039 0.016998
0.182739 0.029419 0.018494
0.201294 0.031982 0.020355
0.219482 0.034515 0.022247
0.237457 0.037140 0.024200
0.255432 0.039825 0.026245
0.273010 0.042572 0.028351
0.290314 0.045349 0.030487
0.307556 0.048248 0.032715
0.324585 0.051147 0.034973
0.341553 0.054169 0.037323
0.358307 0.057159 0.039703
0.374969 0.060272 0.042145
0.391327 0.063416 0.044617
0.407745 0.066650 0.047150
0.424225 0.070007 0.049835
0.440582 0.073395 0.052521
0.456909 0.076782 0.055328
0.472565 0.078979 0.056671
0.488007 0.080841 0.057709
0.503326 0.082855 0.058807
0.518768 0.084869 0.059845
0.534210 0.086761 0.060913
0.549530 0.088776 0.062012
0.564850 0.090698 0.063110
0.580200 0.092712 0.064209
0.595612 0.094849 0.065308
0.611053 0.096893 0.066437
0.626495 0.098969 0.067566
0.642151 0.100983 0.068756
0.657928 0.103149 0.069916
0.673859 0.105255 0.071106
0.690216 0.107452 0.072327
0.706512 0.109680 0.073517
0.723053 0.111786 0.074768
0.740021 0.114105 0.076019
0.756927 0.116455 0.077301
0.774323 0.118683 0.078613
0.791656 0.121033 0.079865
0.809479 0.123383 0.081207
0.827332 0.125641 0.082489
0.845642 0.128113 0.083862
0.864258 0.130585 0.085175
0.882874 0.132935 0.086517
0.894684 0.134369 0.087341
0.894684 0.134369 0.087341
0.000916 0.006500 0.004578
0.000916 0.006500 0.004578
0.000916 0.006500 0.004578
0.001160 0.006500 0.003998
0.001892 0.006683 0.003967
0.002747 0.007080 0.003906
0.003754 0.007507 0.003845
0.004639 0.007599 0.003815
0.005981 0.008392 0.004303
0.009918 0.010406 0.005585
0.015472 0.012756 0.006775
0.022217 0.015289 0.007965
0.042023 0.017883 0.009186
0.062317 0.020508 0.010529
0.082733 0.023254 0.011871
0.102325 0.025970 0.013336
0.122131 0.028809 0.014893
0.141815 0.031708 0.016479
0.161194 0.034576 0.018005
0.180573 0.037537 0.019623
0.199799 0.040466 0.021210
0.218689 0.043762 0.022766
0.236603 0.047302 0.024719
0.255463 0.050659 0.026337
0.273010 0.054077 0.028351
0.290314 0.057587 0.030487
0.307556 0.061157 0.032715
0.324585 0.064606 0.034973
0.341553 0.068054 0.037323
0.358307 0.071442 0.039703
0.374969 0.074829 0.042145
0.391327 0.078186 0.044617
0.407745 0.081512 0.047150
0.424225 0.084839 0.049835
0.440582 0.088165 0.052521
0.456909 0.091553 0.055328
0.472565 0.093689 0.056671
0.488007 0.095642 0.057709
0.503326 0.097595 0.058807
0.518768 0.099548 0.059845
0.534210 0.101501 0.060913
0.549530 0.103485 0.062012
0.564850 0.105499 0.063110
0.580200 0.107483 0.064209
0.595612 0.109589 0.065308
0.611053 0.111542 0.066437
0.626495 0.113678 0.067566
0.642151 0.115753 0.068756
0.657928 0.117767 0.069916
0.673859 0.119965 0.071106
0.690216 0.122131 0.072327
0.706512 0.124390 0.073517
0.723053 0.126526 0.074768
0.740021 0.128754 0.076019
0.756927 0.131104 0.077301
0.774323 0.133331 0.078613
0.791656 0.135773 0.079865
0.809479 0.138092 0.081207
0.827332 0.140289 0.082489
0.845642 0.142639 0.083862
0.864258 0.145050 0.085175
0.882874 0.147461 0.086517
0.894684 0.148865 0.087341
0.894684 0.148865 0.087341
0.001312 0.010437 0.006134
0.001312 0.010437 0.006134
0.001312 0.010437 0.006134
0.001556 0.010437 0.005310
0.002350 0.010529 0.005280
0.003326 0.010986 0.005219
0.004456 0.011505 0.005127
0.005737 0.012085 0.005035
0.006744 0.012085 0.005035
0.009918 0.013062 0.005585
0.015106 0.015656 0.006989
0.021423 0.018463 0.008453
0.039825 0.021912 0.009766
0.060455 0.026855 0.011108
0.080658 0.031464 0.012573
0.100647 0.035858 0.014008
0.120361 0.040070 0.015656
0.140594 0.044220 0.017120
0.159821 0.048126 0.018799
0.179138 0.052002 0.020447
0.197449 0.055786 0.022430
0.216278 0.059357 0.024109
0.234894 0.062927 0.025787
0.253693 0.066315 0.027496
0.271179 0.069824 0.029602
0.289398 0.073090 0.031281
0.306580 0.076538 0.033447
0.324554 0.079620 0.035126
0.341553 0.082916 0.037354
0.358307 0.086243 0.039703
0.374969 0.089630 0.042145
0.391327 0.092957 0.044617
0.407745 0.096252 0.047150
0.424225 0.099579 0.049835
0.440582 0.102905 0.052521
0.456909 0.106201 0.055328
0.472565 0.108368 0.056671
0.488007 0.110382 0.057709
0.503326 0.112213 0.058807
0.518768 0.114197 0.059845
0.534210 0.116150 0.060913
0.549530 0.118134 0.062012
0.564850 0.120117 0.063110
0.580200 0.122223 0.064209
0.595612 0.124207 0.065308
0.611053 0.126129 0.066437
0.626495 0.128265 0.067566
0.642151 0.130249 0.068756
0.657928 0.132477 0.069916
0.673859 0.134521 0.071106
0.690216 0.136719 0.072327
0.706512 0.139008 0.073517
0.723053 0.141083 0.074768
0.740021 0.143463 0.076019
0.756927 0.145660 0.077301
0.774323 0.148010 0.078613
0.791656 0.150238 0.079865
0.809479 0.152649 0.081207
0.827332 0.154968 0.082489
0.845642 0.157257 0.083862
0.864258 0.159729 0.085175
0.882874 0.162079 0.086517
0.894684 0.163422 0.087341
0.894684 0.163422 0.087341
0.001770 0.016541 0.007904
0.001770 0.016541 0.007904
0.001770 0.016541 0.007904
0.002014 0.016541 0.006805
0.002899 0.016541 0.006805
0.003998 0.018188 0.006714
0.005219 0.019867 0.006622
0.006653 0.022095 0.006500
0.008331 0.023376 0.006439
0.011230 0.023376 0.006439
0.015106 0.025208 0.006989
0.021271 0.030182 0.008545
0.038208 0.035034 0.010284
0.058594 0.040344 0.011719
0.078613 0.045227 0.013275
0.098450 0.049896 0.014832
0.118591 0.054474 0.016418
0.138672 0.058777 0.017975
0.157837 0.062897 0.019745
0.176971 0.066864 0.021515
0.195984 0.070740 0.023315
0.214691 0.074493 0.025085
0.233246 0.078125 0.026886
0.251068 0.081818 0.029053
0.269348 0.085236 0.030853
0.287476 0.088593 0.032623
0.304596 0.092072 0.034882
0.322510 0.095276 0.036652
0.339447 0.098602 0.039001
0.357208 0.101715 0.040741
0.373840 0.105042 0.043182
0.390167 0.108246 0.045563
0.407776 0.111115 0.047333
0.424225 0.114349 0.049835
0.440582 0.117584 0.052521
0.456909 0.120850 0.055328
0.472565 0.123077 0.056671
0.488007 0.125031 0.057709
0.503326 0.126892 0.058807
0.518768 0.128876 0.059845
0.534210 0.130859 0.060913
0.549530 0.132812 0.062012
0.564850 0.134735 0.063110
0.580200 0.136780 0.064209
0.595612 0.138733 0.065308
0.611053 0.140869 0.066437
0.626495 0.142792 0.067566
0.642151 0.144958 0.068756
0.657928 0.147064 0.069916
0.673859 0.149139 0.071106
0.690216 0.151337 0.072327
0.706512 0.153473 0.073517
0.723053 0.155701 0.074768
0.740021 0.157928 0.076019
0.756927 0.160248 0.077301
0.774323 0.162506 0.078613
0.791656 0.164886 0.079865
0.809479 0.167236 0.081207
0.827332 0.169464 0.082489
0.845642 0.171906 0.083862
0.864258 0.174286 0.085175
0.882874 0.176483 0.086517
0.894684 0.178009 0.087341
0.894684 0.178009 0.087341
0.002289 0.034058 0.009888
0.002289 0.034058 0.009888
0.002289 0.034058 0.009888
0.002502 0.034058 0.008453
0.003510 0.034058 0.008453
0.004669 0.035217 0.008392
0.006042 0.037079 0.008270
0.007568 0.038910 0.008148
0.009674 0.040741 0.008057
0.013489 0.041809 0.007965
0.016815 0.041809 0.007965
0.021271 0.043579 0.008545
0.038208 0.048492 0.010284
0.057220 0.053345 0.012177
0.077087 0.058533 0.013855
0.096802 0.063477 0.015472
0.116791 0.068268 0.017151
0.136749 0.072845 0.018829
0.155823 0.077118 0.020691
0.174805 0.081299 0.022583
0.194427 0.085419 0.024231
0.213074 0.089294 0.026093
0.231567 0.093018 0.027924
0.249298 0.096710 0.030212
0.267548 0.100311 0.032104
0.285583 0.103760 0.033936
0.302643 0.107208 0.036316
0.320496 0.110596 0.038177
0.337311 0.113953 0.040649
0.355042 0.117157 0.042511
0.371582 0.120514 0.044983
0.389038 0.123505 0.046814
0.405396 0.126740 0.049408
0.423004 0.129822 0.051239
0.439331 0.132965 0.053864
0.455627 0.136139 0.056641
0.472595 0.137848 0.056885
0.488037 0.139709 0.057861
0.503326 0.141602 0.058807
0.518768 0.143524 0.059845
0.534210 0.145477 0.060913
0.549530 0.147400 0.062012
0.564850 0.149353 0.063110
0.580200 0.151337 0.064209
0.595612 0.153351 0.065308
0.611053 0.155396 0.066437
0.626495 0.157501 0.067566
0.642151 0.159546 0.068756
0.657928 0.161713 0.069916
0.673859 0.163757 0.071106
0.690216 0.165863 0.072327
0.706512 0.168121 0.073517
0.723053 0.170349 0.074768
0.740021 0.172577 0.076019
0.756927 0.174805 0.077301
0.774323 0.177124 0.078613
0.791656 0.179382 0.079865
0.809479 0.181732 0.081207
0.827332 0.184052 0.082489
0.845642 0.186401 0.083862
0.864258 0.188629 0.085175
0.882874 0.190979 0.086517
0.894684 0.192474 0.087341
0.894684 0.192474 0.087341
0.002899 0.051392 0.012085
0.002899 0.051392 0.012085
0.002899 0.051392 0.012085
0.003052 0.051392 0.010223
0.004150 0.051392 0.010223
0.005402 0.051819 0.010223
0.006927 0.053894 0.010101
0.008514 0.055603 0.009979
0.011047 0.057648 0.009827
0.015533 0.059326 0.009705
0.019623 0.060120 0.009644
0.023315 0.060120 0.009644
0.038208 0.061829 0.010284
0.057220 0.066650 0.012177
0.076111 0.071472 0.014160
0.095215 0.076447 0.016113
0.115021 0.081482 0.017883
0.134857 0.086365 0.019684
0.154449 0.090942 0.021393
0.173401 0.095245 0.023376
0.192139 0.099457 0.025360
0.210693 0.103455 0.027344
0.229095 0.107361 0.029297
0.247559 0.111145 0.031311
0.265717 0.114868 0.033325
0.283722 0.118469 0.035278
0.300659 0.121979 0.037720
0.318481 0.125488 0.039703
0.336273 0.128784 0.041656
0.352844 0.132202 0.044189
0.370483 0.135406 0.046143
0.386719 0.138672 0.048767
0.404236 0.141815 0.050690
0.420593 0.145081 0.053375
0.436798 0.148224 0.056152
0.454346 0.151245 0.058167
0.470032 0.153625 0.059692
0.485413 0.155487 0.060669
0.502045 0.156982 0.060547
0.517426 0.158722 0.061493
0.532837 0.160706 0.062439
0.549500 0.162048 0.062225
0.564880 0.164001 0.063202
0.580200 0.165894 0.064209
0.595612 0.167816 0.065308
0.611053 0.169922 0.066437
0.626495 0.171967 0.067566
0.642151 0.174011 0.068756
0.657928 0.176056 0.069916
0.673859 0.178131 0.071106
0.690216 0.180389 0.072327
0.706512 0.182526 0.073517
0.723053 0.184723 0.074768
0.740021 0.186920 0.076019
0.756927 0.189178 0.077301
0.774323 0.191559 0.078613
0.791656 0.193817 0.079865
0.809479 0.196045 0.081207
0.827332 0.198486 0.082489
0.845642 0.200745 0.083862
0.864258 0.203094 0.085175
0.882874 0.205475 0.086517
0.894684 0.206970 0.087341
0.894684 0.206970 0.087341
0.003540 0.068634 0.014465
0.003540 0.068634 0.014465
0.003540 0.068634 0.014465
0.003601 0.068634 0.012238
0.004852 0.068634 0.012238
0.006165 0.069061 0.012177
0.007751 0.070496 0.012085
0.009521 0.072357 0.011963
0.012451 0.074188 0.011841
0.017303 0.075989 0.011688
0.022552 0.078186 0.011475
0.028076 0.078217 0.011475
0.041626 0.078217 0.011475
0.057220 0.079926 0.012177
0.076111 0.084808 0.014160
0.094604 0.089478 0.016296
0.113281 0.094177 0.018616
0.132965 0.099335 0.020477
0.152466 0.104187 0.022339
0.171265 0.108582 0.024445
0.190704 0.113159 0.026215
0.209106 0.117371 0.028290
0.227417 0.121399 0.030365
0.245850 0.125305 0.032471
0.263916 0.129181 0.034546
0.281830 0.132812 0.036591
0.299713 0.136444 0.038635
0.316467 0.139954 0.041199
0.334198 0.143433 0.043274
0.351837 0.146820 0.045319
0.368256 0.150238 0.048004
0.385590 0.153442 0.050018
0.401794 0.156677 0.052704
0.419403 0.159851 0.054718
0.435608 0.163177 0.057617
0.451782 0.166321 0.060455
0.468842 0.168640 0.061310
0.484192 0.170471 0.062317
0.500732 0.172089 0.062225
0.516113 0.174011 0.063232
0.531494 0.175903 0.064209
0.546783 0.177765 0.065277
0.563507 0.179321 0.065033
0.578796 0.181183 0.066040
0.594147 0.183136 0.067047
0.611053 0.184601 0.066711
0.626556 0.186584 0.067749
0.642151 0.188416 0.068756
0.657928 0.190460 0.069916
0.673859 0.192596 0.071106
0.690216 0.194824 0.072327
0.706512 0.196930 0.073517
0.723053 0.199158 0.074768
0.740021 0.201324 0.076019
0.756927 0.203674 0.077301
0.774323 0.205872 0.078613
0.791656 0.208221 0.079865
0.809479 0.210388 0.081207
0.827332 0.212769 0.082489
0.845642 0.215088 0.083862
0.864258 0.217377 0.085175
0.882874 0.219818 0.086517
0.894684 0.221283 0.087341
0.894684 0.221283 0.087341
0.004272 0.085663 0.017029
0.004272 0.085663 0.017029
0.004272 0.085663 0.017029
0.004272 0.085663 0.014374
0.005585 0.085663 0.014313
0.007019 0.085663 0.014313
0.008728 0.087677 0.014099
0.010590 0.089233 0.014008
0.014008 0.090759 0.013947
0.019318 0.093231 0.013641
0.024750 0.094727 0.013550
0.033295 0.096191 0.013428
0.046814 0.096191 0.013428
0.060547 0.096191 0.013428
0.076111 0.097961 0.014160
0.094604 0.102661 0.016296
0.113281 0.107361 0.018616
0.131714 0.112000 0.021027
0.150421 0.116791 0.023224
0.169891 0.121826 0.025177
0.188416 0.126190 0.027344
0.207581 0.130829 0.029236
0.225769 0.134949 0.031372
0.244141 0.139069 0.033539
0.262085 0.142944 0.035706
0.279968 0.146820 0.037872
0.297729 0.150574 0.040009
0.315491 0.154205 0.042145
0.332092 0.157654 0.044861
0.349609 0.161133 0.046967
0.367157 0.164581 0.049103
0.383301 0.167877 0.051819
0.400696 0.171295 0.053986
0.416901 0.174561 0.056854
0.434357 0.177734 0.058960
0.450531 0.180969 0.061920
0.466309 0.183655 0.064087
0.482941 0.185364 0.064026
0.498138 0.187256 0.065063
0.514832 0.188995 0.065033
0.530182 0.190887 0.066040
0.545410 0.192810 0.067047
0.562103 0.194427 0.066895
0.577393 0.196350 0.067963
0.592712 0.198212 0.068909
0.609619 0.199829 0.068695
0.625061 0.201782 0.069733
0.640686 0.203857 0.070801
0.656372 0.205811 0.071777
0.673889 0.207275 0.071411
0.690216 0.209259 0.072449
0.706512 0.211243 0.073517
0.723053 0.213440 0.074768
0.740021 0.215729 0.076019
0.756927 0.217896 0.077301
0.774323 0.220215 0.078613
0.791656 0.222504 0.079865
0.809479 0.224823 0.081207
0.827332 0.227081 0.082489
0.845642 0.229340 0.083862
0.864258 0.231659 0.085175
0.882874 0.234009 0.086517
0.894684 0.235443 0.087341
0.894684 0.235443 0.087341
0.005035 0.102600 0.019775
0.005035 0.102600 0.019775
0.005035 0.102600 0.019775
0.005035 0.102600 0.016876
0.006409 0.102600 0.016571
0.007935 0.102600 0.016571
0.009674 0.103729 0.016510
0.011658 0.105408 0.016388
0.015747 0.107544 0.016113
0.021301 0.109680 0.015900
0.027100 0.111359 0.015778
0.037262 0.113464 0.015503
0.052002 0.113983 0.015503
0.065704 0.113983 0.015503
0.079315 0.113983 0.015503
0.094604 0.115723 0.016296
0.113281 0.120422 0.018616
0.131714 0.125061 0.021027
0.149780 0.129608 0.023560
0.167694 0.134064 0.026123
0.186951 0.139069 0.028137
0.205994 0.143890 0.030151
0.224121 0.148163 0.032379
0.242432 0.152344 0.034637
0.260315 0.156433 0.036896
0.278076 0.160400 0.039124
0.295807 0.164276 0.041382
0.313416 0.167999 0.043579
0.331085 0.171631 0.045807
0.347504 0.175140 0.048645
0.364929 0.178711 0.050873
0.382172 0.182068 0.053009
0.398346 0.185425 0.055939
0.415741 0.188812 0.058228
0.431854 0.192017 0.061157
0.449249 0.195312 0.063354
0.465088 0.198029 0.065674
0.481628 0.199860 0.065704
0.496796 0.201782 0.066742
0.512115 0.203857 0.067871
0.528839 0.205597 0.067810
0.544037 0.207581 0.068848
0.559326 0.209686 0.069977
0.576019 0.211212 0.069794
0.591339 0.213257 0.070892
0.606659 0.215210 0.071899
0.623596 0.216827 0.071686
0.639160 0.218750 0.072693
0.654846 0.220886 0.073853
0.672333 0.222412 0.073456
0.688629 0.224426 0.074554
0.704895 0.226685 0.075745
0.721375 0.228668 0.076752
0.740051 0.230133 0.076385
0.756927 0.232300 0.077484
0.774323 0.234467 0.078613
0.791656 0.236694 0.079865
0.809479 0.239075 0.081207
0.827332 0.241272 0.082489
0.845642 0.243622 0.083862
0.864258 0.245850 0.085175
0.882874 0.248260 0.086517
0.894684 0.249664 0.087341
0.894684 0.249664 0.087341
0.005890 0.119354 0.022705
0.005890 0.119354 0.022705
0.005890 0.119354 0.022705
0.005890 0.119354 0.019592
0.007202 0.119354 0.018982
0.008881 0.119354 0.018982
0.010681 0.119965 0.018951
0.012817 0.122284 0.018646
0.017487 0.123505 0.018616
0.023315 0.125305 0.018463
0.029510 0.127594 0.018158
0.040192 0.129364 0.017975
0.056702 0.131653 0.017670
0.070831 0.131653 0.017731
0.084442 0.131653 0.017731
0.097809 0.131653 0.017731
0.113281 0.133423 0.018616
0.131714 0.138062 0.021027
0.149780 0.142548 0.023560
0.167694 0.147003 0.026184
0.185486 0.151520 0.028961
0.203644 0.156097 0.031311
0.222534 0.160980 0.033356
0.240692 0.165253 0.035706
0.258545 0.169464 0.038055
0.276215 0.173492 0.040344
0.293854 0.177521 0.042694
0.311432 0.181427 0.045044
0.329010 0.185181 0.047363
0.346436 0.188904 0.049683
0.362732 0.192352 0.052582
0.379883 0.195923 0.054901
0.397156 0.199341 0.057159
0.413300 0.202667 0.060181
0.430634 0.206116 0.062592
0.446716 0.209351 0.065704
0.463867 0.212311 0.067383
0.479065 0.214417 0.068481
0.495544 0.216278 0.068451
0.510864 0.218231 0.069580
0.527496 0.220154 0.069550
0.542725 0.222168 0.070679
0.557953 0.224091 0.071747
0.574615 0.225861 0.071625
0.589874 0.227966 0.072754
0.605225 0.229889 0.073822
0.622131 0.231567 0.073547
0.637665 0.233673 0.074738
0.653351 0.235748 0.075836
0.670807 0.237427 0.075531
