assassinioa.CUBE
#Created by: Adobe Photoshop Export Color Lookup Plugin
TITLE "assassinioa.psd"
#LUT size
LUT_3D_SIZE 8
#data domain
DOMAIN_MIN 0.0 0.0 0.0
DOMAIN_MAX 1.0 1.0 1.0
#LUT data points
0.000000 0.000000 0.000000
0.011963 0.000977 0.004303
0.163940 0.005280 0.016693
0.324585 0.012390 0.034973
0.472565 0.021729 0.056671
0.611053 0.037476 0.066437
0.756927 0.057251 0.077301
0.894684 0.075317 0.087341
0.002899 0.051392 0.012085
0.015533 0.059326 0.009705
0.154449 0.090942 0.021393
0.318481 0.125488 0.039703
0.470032 0.153625 0.059692
0.611053 0.169922 0.066437
0.756927 0.189178 0.077301
0.894684 0.206970 0.087341
0.010773 0.200012 0.039734
0.035217 0.204041 0.032318
0.161926 0.216614 0.030457
0.303497 0.243134 0.050964
0.456329 0.278778 0.076172
0.598022 0.299347 0.083282
0.748413 0.318970 0.089050
0.888397 0.335632 0.095490
0.022064 0.331268 0.077820
0.060577 0.332367 0.063263
0.191010 0.348114 0.060181
0.312469 0.354706 0.058716
0.446136 0.379913 0.086395
0.586609 0.406555 0.098511
0.736542 0.431366 0.105133
0.876007 0.451141 0.111664
0.042328 0.451385 0.125183
0.093475 0.451385 0.101227
0.215576 0.464233 0.098083
0.343140 0.478973 0.091797
0.451050 0.480255 0.091125
0.580963 0.501129 0.106140
0.726532 0.529053 0.119080
0.865906 0.552063 0.125427
0.071350 0.564331 0.153442
0.117950 0.564331 0.123932
0.233734 0.573822 0.119080
0.355713 0.587738 0.111816
0.475891 0.596893 0.107330
0.582672 0.596893 0.107330
0.721588 0.620758 0.125946
0.855957 0.644928 0.139099
0.102356 0.681335 0.180420
0.142761 0.681335 0.144989
0.253723 0.688629 0.140778
0.371460 0.699677 0.135742
0.491852 0.713898 0.127441
0.607178 0.719330 0.125031
0.721588 0.720398 0.125946
0.851959 0.742950 0.144318
0.135498 0.807343 0.209808
0.169342 0.807343 0.167877
0.275909 0.811646 0.165009
0.390839 0.822876 0.160278
0.506378 0.838074 0.151459
0.626892 0.849152 0.146637
0.745361 0.853485 0.144318
0.851959 0.853485 0.144318
0.003540 0.003540 0.104248
0.021759 0.002991 0.110779
0.163940 0.005280 0.135895
0.324585 0.012390 0.175690
0.472565 0.021729 0.210144
0.611053 0.037476 0.220490
0.756927 0.057251 0.232056
0.894684 0.075317 0.242828
0.002686 0.075012 0.114014
0.019348 0.082153 0.127594
0.171570 0.102783 0.156158
0.333557 0.134186 0.195465
0.482025 0.160950 0.226440
0.621643 0.178619 0.236847
0.769379 0.197937 0.248535
0.910065 0.215637 0.259155
0.008392 0.222656 0.149017
0.051575 0.225037 0.169189
0.179260 0.238281 0.178162
0.328796 0.265869 0.205872
0.480652 0.292358 0.233459
0.623779 0.308075 0.240051
0.771820 0.326935 0.251617
0.913147 0.344177 0.262360
0.019928 0.347260 0.197540
0.097382 0.351410 0.222870
0.207672 0.366852 0.224548
0.332947 0.378265 0.221283
0.468597 0.402710 0.248657
0.612274 0.425842 0.255432
0.763824 0.446198 0.262665
0.907990 0.462555 0.269165
0.036041 0.460724 0.245270
0.135498 0.471497 0.268494
0.236237 0.484436 0.262695
0.355133 0.497772 0.255829
0.471436 0.503021 0.253540
0.601990 0.523621 0.269196
0.753296 0.550232 0.277222
0.896057 0.569885 0.284607
0.069061 0.567291 0.275940
0.164124 0.583313 0.293915
0.258881 0.596008 0.282684
0.370728 0.605133 0.278015
0.493530 0.618378 0.270752
0.603668 0.619476 0.270416
0.744232 0.643219 0.289917
0.886078 0.667297 0.298248
0.102356 0.681335 0.305969
0.195007 0.700500 0.321869
0.283264 0.713409 0.304626
0.389587 0.720459 0.300385
0.506226 0.731781 0.294861
0.628265 0.742828 0.289001
0.744232 0.743927 0.289917
0.877838 0.766663 0.309113
0.135498 0.807343 0.336334
0.227997 0.827789 0.352295
0.309326 0.841675 0.328369
0.411469 0.845276 0.326202
0.523560 0.856323 0.321350
0.641235 0.870728 0.313690
0.768188 0.879730 0.309113
0.877838 0.879730 0.309113
0.011536 0.011536 0.272736
0.049683 0.011200 0.275208
0.182617 0.008820 0.290009
0.324585 0.012390 0.306244
0.472565 0.021729 0.337708
0.611053 0.037476 0.348724
0.756927 0.057251 0.360809
0.894684 0.075317 0.372162
0.010498 0.108856 0.280151
0.059021 0.121338 0.292542
0.188965 0.122620 0.306122
0.333557 0.134186 0.325623
0.482025 0.160950 0.354065
0.621643 0.178619 0.365051
0.769379 0.197937 0.377228
0.910065 0.215637 0.388580
0.008820 0.239349 0.290009
0.051361 0.247406 0.304047
0.196594 0.258087 0.321075
0.342255 0.274445 0.343567
0.491180 0.298309 0.369232
0.631866 0.315613 0.380280
0.781403 0.334534 0.392517
0.925079 0.351776 0.403717
0.014404 0.375854 0.314484
0.077850 0.381348 0.328644
0.225708 0.385345 0.351562
0.348602 0.396698 0.361542
0.488922 0.419189 0.378693
0.632996 0.436096 0.385864
0.784424 0.453735 0.396240
0.928894 0.470612 0.407562
0.027954 0.490326 0.345276
0.118225 0.493774 0.362152
0.264954 0.497498 0.392303
0.369568 0.511810 0.392914
0.488403 0.521606 0.388031
0.622314 0.542572 0.400391
0.776276 0.564636 0.407745
0.923218 0.580658 0.415009
0.047333 0.595215 0.367615
0.152069 0.598022 0.388031
0.293396 0.608887 0.418579
0.391052 0.621887 0.414062
0.504852 0.632782 0.408295
0.621185 0.638062 0.405548
0.765228 0.662354 0.422974
0.910675 0.683716 0.431000
0.083191 0.705292 0.395599
0.187561 0.709351 0.419220
0.324097 0.726532 0.447266
0.414948 0.739929 0.436676
0.521362 0.747467 0.432648
0.642334 0.760254 0.425903
0.763245 0.763397 0.425720
0.899841 0.786407 0.445618
0.120972 0.825867 0.428741
0.226471 0.829590 0.455200
0.356842 0.855896 0.478455
0.440643 0.870544 0.461243
0.541260 0.875031 0.458923
0.655090 0.889862 0.451050
0.787506 0.901794 0.445618
0.899841 0.901794 0.445618
0.022034 0.026794 0.411896
0.086182 0.026794 0.411896
0.210999 0.018951 0.426270
0.339355 0.016785 0.435089
0.472565 0.021729 0.448303
0.611053 0.037476 0.459808
0.756927 0.057251 0.472382
0.894684 0.075317 0.484100
0.021149 0.141327 0.416290
0.096558 0.154907 0.430969
0.222382 0.158569 0.440735
0.348206 0.149078 0.453857
0.482025 0.160950 0.464661
0.621643 0.178619 0.476105
0.769379 0.197937 0.488831
0.910065 0.215637 0.500519
0.017883 0.264771 0.430695
0.089233 0.273132 0.441864
0.233643 0.289459 0.456329
0.355896 0.290314 0.468536
0.491180 0.298309 0.479797
0.631866 0.315613 0.491364
0.781403 0.334534 0.503998
0.925079 0.351776 0.515686
0.016785 0.382660 0.435089
0.084747 0.391235 0.448578
0.226196 0.402924 0.466461
0.364166 0.413727 0.481110
0.499695 0.425201 0.493286
0.641235 0.442139 0.504791
0.792480 0.460632 0.517395
0.939117 0.478027 0.529266
0.023529 0.505402 0.450073
0.102631 0.513916 0.461792
0.243958 0.522766 0.478271
0.384857 0.526855 0.498016
0.504059 0.537964 0.504364
0.641602 0.556976 0.513672
0.796539 0.573700 0.521912
0.943298 0.590027 0.533936
0.037811 0.618500 0.462799
0.132172 0.622375 0.477112
0.277740 0.626770 0.499390
0.417725 0.632629 0.527252
0.521942 0.647034 0.527496
0.638397 0.655304 0.522888
0.786072 0.679718 0.537537
0.935516 0.697815 0.544403
0.065613 0.727509 0.483704
0.169067 0.731537 0.501007
0.313751 0.738220 0.528717
0.448181 0.750946 0.555634
0.546021 0.764587 0.551605
0.656799 0.776062 0.545044
0.782013 0.781799 0.543823
0.922607 0.805695 0.561371
0.103424 0.848724 0.511536
0.207153 0.853607 0.531586
0.351624 0.862091 0.562927
0.483398 0.883148 0.586945
0.572296 0.897095 0.576416
0.674316 0.905426 0.572296
0.804962 0.920746 0.564728
0.920502 0.921936 0.564209
0.034302 0.048187 0.528168
0.116089 0.048187 0.528168
0.235626 0.039825 0.537476
0.358582 0.029449 0.549164
0.479858 0.026367 0.552612
0.611053 0.037476 0.559692
0.756927 0.057251 0.572266
0.894684 0.075317 0.583832
0.033936 0.167816 0.529358
0.124969 0.179901 0.544250
0.249390 0.184601 0.550629
0.366302 0.174164 0.561615
0.489349 0.167725 0.568329
0.621643 0.178619 0.575378
0.769379 0.197937 0.587921
0.910065 0.215637 0.599335
0.029907 0.284393 0.542175
0.119141 0.294250 0.550812
0.259186 0.312012 0.565582
0.377808 0.314331 0.573486
0.498535 0.304962 0.582855
0.631866 0.315613 0.589783
0.781403 0.334534 0.602325
0.925079 0.351776 0.613770
0.026123 0.400726 0.552612
0.110016 0.407318 0.561096
0.251892 0.418549 0.573151
0.388763 0.434357 0.585052
0.506439 0.432983 0.594452
0.641235 0.442139 0.602600
0.792480 0.460632 0.615112
0.939117 0.478027 0.626709
0.026123 0.509094 0.552612
0.107513 0.517548 0.563873
0.246460 0.529053 0.578827
0.381134 0.539734 0.592529
0.522156 0.554565 0.605957
0.656891 0.567383 0.617065
0.807312 0.585205 0.629822
0.953644 0.601349 0.641510
0.034912 0.625702 0.560425
0.122345 0.634460 0.571686
0.260651 0.646362 0.586578
0.399048 0.652771 0.601410
0.544464 0.662018 0.623413
0.659485 0.674408 0.627075
0.808258 0.695099 0.637482
0.957214 0.708710 0.645111
0.052399 0.748047 0.572571
0.152039 0.752289 0.585419
0.295258 0.759277 0.604614
0.435120 0.764984 0.625793
0.578064 0.777832 0.653564
0.676514 0.790894 0.650543
0.801422 0.800018 0.647339
0.944641 0.823425 0.660919
0.087677 0.869751 0.593079
0.189453 0.876068 0.608795
0.333435 0.883881 0.631897
0.476013 0.890564 0.658539
0.610168 0.910706 0.684113
0.697723 0.921539 0.676056
0.819916 0.936157 0.669281
0.939789 0.940674 0.667145
0.051971 0.067841 0.629089
0.138794 0.067841 0.629089
0.256500 0.061584 0.635956
0.374268 0.051636 0.646912
0.496124 0.041748 0.657867
0.615021 0.041748 0.657867
0.756927 0.057251 0.667786
0.894684 0.075317 0.679382
0.051971 0.187805 0.629089
0.147644 0.199493 0.644684
0.271545 0.204102 0.650818
0.384979 0.195984 0.659302
0.503815 0.185852 0.669861
0.625610 0.182800 0.673035
0.769379 0.197937 0.682922
0.910065 0.215637 0.694702
0.044922 0.301300 0.640045
0.143494 0.313080 0.649231
0.281403 0.331421 0.665405
0.399994 0.336029 0.670959
0.512939 0.325897 0.680969
0.635864 0.319672 0.687134
0.781403 0.334534 0.697021
0.925079 0.351776 0.708710
0.040405 0.412872 0.651001
0.134247 0.421326 0.659546
0.275665 0.435730 0.671326
0.410522 0.453613 0.684448
0.524658 0.454834 0.691406
0.645264 0.446167 0.699646
0.792480 0.460632 0.709595
0.939117 0.478027 0.721375
0.037354 0.522888 0.657867
0.126068 0.531311 0.668701
0.266693 0.541656 0.680695
0.403412 0.552917 0.691376
0.545074 0.573883 0.704193
0.661041 0.571259 0.713196
0.807312 0.585205 0.723297
0.953644 0.601349 0.735291
0.037354 0.628296 0.657867
0.126068 0.637024 0.668701
0.264252 0.648895 0.683228
0.398102 0.660095 0.696594
0.537354 0.674225 0.710754
0.677826 0.691284 0.724915
0.822235 0.704651 0.737091
0.968048 0.719574 0.748932
0.049896 0.753143 0.667145
0.143585 0.762665 0.678040
0.281036 0.775665 0.692627
0.415771 0.786163 0.706390
0.560852 0.794586 0.723450
0.702637 0.805023 0.748291
0.820221 0.817719 0.746552
0.966003 0.838043 0.757172
0.072113 0.891052 0.679932
0.173523 0.897003 0.692230
0.315491 0.906006 0.710205
0.454437 0.913330 0.728760
0.599579 0.922211 0.752716
0.732361 0.938965 0.779053
0.836273 0.951477 0.769989
0.958679 0.959106 0.766510
0.076263 0.088684 0.736084
0.162659 0.088684 0.736084
0.280060 0.085754 0.739349
0.393463 0.074036 0.752441
0.509674 0.065308 0.762299
0.630157 0.058105 0.770538
0.757568 0.058105 0.770538
0.894684 0.075317 0.782257
0.076263 0.208435 0.736084
0.171600 0.220184 0.751648
0.295013 0.224884 0.757874
0.406647 0.218628 0.764496
0.519928 0.208710 0.775177
0.640686 0.198822 0.785858
0.770172 0.198822 0.785858
0.910065 0.215637 0.797516
0.068054 0.320526 0.745880
0.170380 0.334351 0.753082
0.304932 0.351959 0.772583
0.423004 0.356628 0.778198
0.531952 0.348511 0.786530
0.650024 0.337341 0.798035
0.782104 0.335327 0.800110
0.925079 0.351776 0.811920
0.059875 0.428467 0.755707
0.160431 0.438660 0.764374
0.301758 0.455963 0.775879
0.433533 0.474091 0.791901
0.548126 0.478912 0.796509
0.658875 0.466980 0.807312
0.793152 0.461456 0.812836
0.939117 0.478027 0.824860
0.054108 0.535187 0.765594
0.151794 0.543488 0.774323
0.292358 0.555969 0.786011
0.429352 0.570770 0.796112
0.568024 0.593964 0.811646
0.677948 0.593811 0.818573
0.808105 0.585999 0.826050
0.953644 0.601349 0.838043
0.051514 0.641724 0.770538
0.145660 0.650391 0.781464
0.283020 0.662354 0.796143
0.419403 0.672302 0.806305
0.561127 0.688171 0.817932
0.698608 0.710175 0.831818
0.822998 0.705383 0.839233
0.968048 0.719574 0.851257
0.051514 0.754639 0.770538
0.145660 0.764008 0.781464
0.283020 0.777039 0.796143
0.416107 0.789276 0.809723
0.554932 0.803467 0.823669
0.691895 0.818878 0.838287
0.838898 0.835052 0.853119
0.983521 0.848541 0.865387
0.069061 0.895386 0.782257
0.166290 0.906586 0.793182
0.302765 0.922058 0.807892
0.434937 0.936829 0.821533
0.578369 0.945831 0.837036
0.718323 0.955017 0.855927
0.866638 0.970459 0.883209
0.978760 0.978851 0.874847
0.101837 0.110687 0.853577
0.187866 0.110687 0.853577
0.304688 0.108978 0.855591
0.415314 0.098816 0.867798
0.527130 0.088745 0.880096
0.644226 0.078674 0.892548
0.772308 0.075317 0.896729
0.894684 0.075317 0.896729
0.101837 0.230347 0.853577
0.196808 0.242004 0.869995
0.319672 0.246704 0.876556
0.430878 0.243774 0.880035
0.539246 0.233368 0.892120
0.653595 0.222992 0.904327
0.784851 0.215637 0.913177
0.910065 0.215637 0.913177
0.097107 0.342316 0.859650
0.196808 0.356659 0.869995
0.329559 0.373627 0.892242
0.447113 0.378357 0.898315
0.553741 0.373291 0.904022
0.664764 0.361847 0.916962
0.796906 0.351776 0.928680
0.925079 0.351776 0.928680
0.087677 0.446960 0.871887
0.188019 0.458801 0.880829
0.329559 0.478668 0.892242
0.457672 0.495667 0.913177
0.572296 0.501709 0.918213
0.678070 0.492706 0.927460
0.807831 0.479126 0.941528
0.939117 0.478027 0.942688
0.079865 0.549500 0.882172
0.179291 0.559113 0.891785
0.319275 0.573944 0.904358
0.455505 0.591187 0.915619
0.591644 0.614838 0.933838
0.700134 0.617706 0.938049
0.822174 0.604614 0.952484
0.953644 0.601349 0.956207
0.070557 0.655029 0.894653
0.170624 0.662598 0.902893
0.310394 0.674530 0.915070
0.445740 0.687195 0.926727
0.588104 0.707214 0.937531
0.720093 0.729919 0.954926
0.837891 0.725708 0.962616
0.968048 0.719574 0.969666
0.069061 0.768158 0.896729
0.166290 0.777802 0.908447
0.302765 0.790833 0.924347
0.434937 0.803192 0.939209
0.575714 0.816772 0.950897
0.713654 0.832825 0.962067
0.859436 0.854919 0.977264
0.983521 0.848541 0.984283
0.069061 0.895386 0.896729
0.166290 0.906586 0.908447
0.302765 0.922058 0.924347
0.434937 0.936829 0.939209
0.573029 0.951843 0.953735
0.707825 0.967377 0.968597
0.854340 0.984375 0.984985
1.000000 1.000000 1.000000
