assassinioa.CUBE
#Created by: Adobe Photoshop Export Color Lookup Plugin
TITLE "assassinioa.psd"
#LUT size
LUT_3D_SIZE 4
#data domain
DOMAIN_MIN 0.0 0.0 0.0
DOMAIN_MAX 1.0 1.0 1.0
#LUT data points
0.000000 0.000000 0.000000
0.219482 0.007385 0.022247
0.564850 0.031281 0.063110
0.894684 0.075317 0.087341
0.014252 0.245697 0.051514
0.214020 0.264648 0.039246
0.546997 0.330261 0.086060
0.884247 0.376282 0.100922
0.061676 0.526917 0.145081
0.268494 0.543335 0.108734
0.538635 0.557983 0.101807
0.859924 0.614258 0.133881
0.135498 0.807343 0.209808
0.314575 0.816071 0.162842
0.585358 0.844757 0.148804
0.851959 0.853485 0.144318
0.014862 0.014862 0.322021
0.236938 0.011322 0.341400
0.564850 0.031281 0.383575
0.894684 0.075317 0.411102
0.011322 0.289307 0.341400
0.254425 0.312134 0.377686
0.587982 0.353149 0.419891
0.929810 0.394897 0.447601
0.037079 0.567566 0.391724
0.325958 0.579803 0.447540
0.582031 0.604584 0.440277
0.923187 0.653900 0.464996
0.116180 0.832062 0.456543
0.398895 0.865021 0.516663
0.620941 0.889191 0.496582
0.906586 0.908539 0.486755
0.044220 0.061188 0.595306
0.289062 0.050598 0.606995
0.569977 0.036591 0.622559
0.894684 0.075317 0.647339
0.038177 0.333344 0.610901
0.317749 0.366760 0.638458
0.592987 0.358154 0.656342
0.929810 0.394897 0.681061
0.033356 0.588379 0.622559
0.303680 0.612518 0.652740
0.626251 0.645660 0.684967
0.963104 0.679718 0.712708
0.076752 0.884644 0.650208
0.369324 0.900146 0.689240
0.691071 0.929260 0.746948
0.952301 0.952850 0.732971
0.101837 0.110687 0.853577
0.341827 0.105591 0.859650
0.603973 0.082001 0.888367
0.894684 0.075317 0.896729
0.093964 0.377777 0.863708
0.372986 0.415497 0.899414
0.630341 0.410400 0.915833
0.929810 0.394897 0.933533
0.073639 0.618683 0.890472
0.359619 0.644257 0.915009
0.676788 0.691040 0.947723
0.963104 0.679718 0.965057
0.069061 0.895386 0.896729
0.347534 0.927094 0.929474
0.662476 0.962067 0.963593
1.000000 1.000000 1.000000
